X: 289
U:~=!turn!
M:C
L:1/8
K:C
(e/f/) | g<ce>d {/B}c2 G(e/f/) | {/f}g>ce>c (B<d)d(e/f/) | g>ca>c g>ce>c | (A/B/c) B/c/d G<cc :|
{/B,}C>EG>c (A/B/c) GF | (E/G/).c/.e/ {/f}g>c B<dd>e | ((3cef) ((3geg) ((3afa) ((3geg) | ((3fdc) ((3Bgf) e<cc |]


